X: 311
T: 4. La Suzette
T: la Suzette
B: Robert Landrin "Potpourri fran\,cois des contre-danse ancienne tel quil se danse chez la Reine ..." 1760 p.31 #1 dance 10 #4
S: http://memory.loc.gov/cgi-bin/query/D?musdibib:2:./temp/~ammem_EbRS:
Z: 2014 John Chambers <jc:trillian.mit.edu>
N: Why is the "2.F." over the end of the 2nd bar in the 3rd strain?
M: 2/4
L: 1/16
K: G
% - - - - - - - - - - - - - - - - - - - - - - - - -
|:\
G4 G4 | G6B2 | A2B2c2c2 | c4B4 |\
G6(dB) | G6(dB) | g2g2f2e2 | !+!e4d4 :|
|:\
"2.F."D4D4 | D6(AB) | c2A2c2A2 | D6(GA) |\
B2G2B2G2 | C2e4dc | B2c4BA | G4G4 :|
|:\
g4g4 | g6"2.F."(Bc) | d2B2e2c2 | d6(Bc) |\
d2B2e2c2 | d2B2e2c2 | B2G2 D2(FA) | G4G4 :|
|:\
"2.F."c4c4 | c6(AB) | c2A2c2A2 | B6(GA) |\
B2G2c2A2 | B2G2c2A2 | B2G2 D2(FA) | G4G4 :|
|:\
"2.F."GFGA BABc | d2D2d2D2 | GFGA BABc | d4D4 :|\
"1.F."c2c4BA | GFGA GABG |
c2c4BA | GFGA G4 |\
c2c4BA | GFGA GABG |  c2c4BA | HG8 |]
% - - - - - - - - - - - - - - - - - - - - - - - - -

%%sep 1 1 500
%%sep 1 1 500
